svgs/regular/house-flag.svg

<svg xmlns="http://www.w3.org/2000/svg" viewBox="0 0 640 512"><!--! Font Awesome Pro 6.6.0 by @fontawesome - https://fontawesome.com License - https://fontawesome.com/license (Commercial License) Copyright 2024 Fonticons, Inc. --><path d="M472 0c-13.3 0-24 10.7-24 24l0 8 0 160 0 320 48 0 0-320 128 0c8.8 0 16-7.2 16-16l0-128c0-8.8-7.2-16-16-16L496 32l0-8c0-13.3-10.7-24-24-24zM416 133L286.3 36.7c-8.5-6.3-20.1-6.3-28.6 0l-248 184c-10.6 7.9-12.9 22.9-5 33.6s22.9 12.9 33.6 5L64 240.2 64 432c0 44.2 35.8 80 80 80l256 0c5.5 0 10.8-.6 16-1.6l0-50.7c-4.7 2.7-10.2 4.3-16 4.3l-48 0 0-120c0-22.1-17.9-40-40-40l-80 0c-22.1 0-40 17.9-40 40l0 120-48 0c-17.7 0-32-14.3-32-32l0-227.4L272 85.9 416 192.7l0-59.8zM304 352l0 112-64 0 0-112 64 0z"/></svg>

<svg xmlns="http://www.w3.org/2000/svg" viewBox="0 0 640 512"><!--! Font Awesome Pro 6.4.2 by @fontawesome - https://fontawesome.com License - https://fontawesome.com/license (Commercial License) Copyright 2023 Fonticons, Inc. --><path d="M472 0c-13.3 0-24 10.7-24 24v8V192 512h48V192H624c8.8 0 16-7.2 16-16V48c0-8.8-7.2-16-16-16H496V24c0-13.3-10.7-24-24-24zM416 133L286.3 36.7c-8.5-6.3-20.1-6.3-28.6 0l-248 184c-10.6 7.9-12.9 22.9-5 33.6s22.9 12.9 33.6 5L64 240.2V432c0 44.2 35.8 80 80 80l256 0c5.5 0 10.8-.6 16-1.6V459.7c-4.7 2.7-10.2 4.3-16 4.3H352V344c0-22.1-17.9-40-40-40H232c-22.1 0-40 17.9-40 40V464H144c-17.7 0-32-14.3-32-32V204.6L272 85.9 416 192.7V133zM304 352V464l-64 0V352h64z"/></svg>
